X: 3312
T: MERRY MASONS
%R: waltz
B: James Kerr "Merry Melodies" v.3 p.34 #312
Z: 2016 John Chambers <jc:trillian.mit.edu>
N: This tune is also in the jig section, v.3 #266.
M: 3/4
L: 1/4
K: G
D |\
(G>AB/c/) | BAG | (F>GA/B/) | AFD |\
(G>AB/c/) | BAG | Bdd | d2 ::\
uB |\
cde | (d2c) | BAG | (d2B) |\
cBc | Adc | "_D.C. to Allegro"BGG | Gz :|

%%sep 1 1 500
%%sep 1 1 500

